public/logos/K3.svg

<?xml version="1.0" encoding="UTF-8"?>
<svg xmlns="http://www.w3.org/2000/svg" xmlns:xlink="http://www.w3.org/1999/xlink" width="176pt" height="33.88pt" viewBox="0 0 176 33.88" version="1.1">
<defs>
<clipPath id="clip1">
  <path d="M 118 0 L 151 0 L 151 33.878906 L 118 33.878906 Z M 118 0 "/>
</clipPath>
</defs>
<g id="surface1">
<path style=" stroke:none;fill-rule:nonzero;fill:rgb(13.928223%,18.092346%,37.806702%);fill-opacity:1;" d="M 11.996094 31.566406 C 7.96875 31.546875 5.019531 30.558594 3.15625 28.546875 C 1.382812 26.652344 0.496094 24.457031 0.496094 21.960938 C 0.496094 19.859375 1.066406 17.78125 2.210938 15.738281 L 4.644531 12.265625 C 6.417969 9.859375 9.003906 7.304688 12.402344 4.597656 C 7.5625 4.296875 4.121094 3.992188 1.429688 5.191406 L 0 0.449219 C 0.871094 0.148438 2.121094 0 3.742188 0 C 4.464844 0 6.914062 0.125 11.09375 0.382812 C 15.273438 0.636719 18.535156 0.765625 20.882812 0.765625 C 22.925781 0.765625 25.570312 0.613281 28.820312 0.3125 L 25.570312 4.507812 C 22.925781 4.660156 20.175781 4.734375 17.320312 4.734375 C 12.597656 6.628906 8.988281 9.183594 6.492188 12.402344 L 4.554688 15.691406 C 4.164062 16.355469 3.96875 17.316406 3.96875 18.578125 C 3.96875 19.933594 4.300781 21.195312 4.960938 22.367188 C 5.984375 24.203125 7.515625 25.84375 9.832031 26.515625 C 12.242188 27.214844 15.140625 31.582031 11.996094 31.566406 "/>
<path style=" stroke:none;fill-rule:nonzero;fill:rgb(13.928223%,18.092346%,37.806702%);fill-opacity:1;" d="M 26.601562 11.617188 L 30.480469 10.800781 C 29.578125 12.785156 29.125 15.027344 29.125 17.523438 C 29.125 18.695312 29.390625 19.574219 29.914062 20.160156 C 30.441406 20.746094 31.320312 21.21875 32.554688 21.582031 L 26.828125 24.195312 C 25.894531 23.714844 25.230469 23.023438 24.839844 22.121094 C 24.570312 21.492188 24.390625 20.542969 24.300781 19.28125 C 21.773438 22.558594 19.039062 24.195312 16.09375 24.195312 C 15.101562 24.195312 14.25 23.820312 13.542969 23.066406 C 12.835938 22.3125 12.484375 21.421875 12.484375 20.394531 C 12.484375 17.921875 13.808594 15.617188 16.453125 13.472656 C 18.976562 11.421875 21.503906 10.398438 24.03125 10.398438 C 25.023438 10.398438 25.847656 10.503906 26.511719 10.710938 L 23.578125 14.863281 C 22.34375 14.652344 21.429688 14.546875 20.828125 14.546875 C 17.582031 14.546875 15.957031 15.304688 15.957031 16.820312 C 15.957031 17.519531 16.273438 18.179688 16.902344 18.800781 C 17.535156 19.421875 18.195312 19.730469 18.890625 19.730469 C 23.066406 19.730469 25.636719 17.027344 26.601562 11.617188 "/>
<path style=" stroke:none;fill-rule:nonzero;fill:rgb(13.928223%,18.092346%,37.806702%);fill-opacity:1;" d="M 48.15625 11.207031 L 52.351562 10.171875 L 48.878906 30.511719 L 45.226562 31.730469 L 46.941406 18.109375 C 43.453125 22.136719 40.566406 24.152344 38.28125 24.152344 C 35.753906 24.152344 34.492188 22.773438 34.492188 20.019531 C 34.492188 18.476562 35.078125 16.902344 36.253906 15.300781 C 37.273438 13.9375 38.535156 12.804688 40.039062 11.894531 C 41.902344 10.746094 43.8125 10.171875 45.769531 10.171875 C 46.609375 10.171875 47.300781 10.277344 47.84375 10.492188 L 44.59375 14.679688 C 43.933594 14.441406 43.347656 14.320312 42.835938 14.320312 C 40.070312 14.320312 38.402344 14.734375 37.832031 15.558594 C 37.589844 15.894531 37.46875 16.398438 37.46875 17.070312 C 37.46875 17.925781 37.832031 18.613281 38.550781 19.132812 C 39.183594 19.621094 39.933594 19.867188 40.804688 19.867188 C 44.59375 19.867188 47.046875 16.980469 48.15625 11.207031 "/>
<path style=" stroke:none;fill-rule:nonzero;fill:rgb(13.928223%,18.092346%,37.806702%);fill-opacity:1;" d="M 56.277344 10.984375 L 60.289062 10.578125 C 59.234375 14.273438 58.710938 16.621094 58.710938 17.613281 C 58.710938 18.242188 58.914062 18.808594 59.320312 19.304688 C 59.726562 19.800781 60.226562 20.046875 60.832031 20.046875 C 62.632812 20.046875 64.363281 18.230469 66.015625 14.589844 C 66.4375 13.660156 66.828125 12.5 67.1875 11.117188 L 70.617188 10.304688 C 69.835938 13.765625 69.445312 16.109375 69.445312 17.34375 C 69.445312 19.777344 70.707031 21.160156 73.230469 21.492188 L 67.503906 24.285156 C 65.851562 23.625 65.023438 21.914062 65.023438 19.144531 C 63.519531 20.921875 62.4375 22.0625 61.777344 22.574219 C 60.425781 23.625 58.964844 24.152344 57.402344 24.152344 C 55.355469 24.152344 54.335938 22.648438 54.335938 19.640625 C 54.335938 17.386719 54.980469 14.5 56.277344 10.984375 "/>
<path style=" stroke:none;fill-rule:nonzero;fill:rgb(13.928223%,18.092346%,37.806702%);fill-opacity:1;" d="M 89.332031 11.617188 L 93.210938 10.800781 C 92.308594 12.785156 91.859375 15.027344 91.859375 17.523438 C 91.859375 18.695312 92.121094 19.574219 92.648438 20.160156 C 93.171875 20.746094 94.050781 21.21875 95.285156 21.582031 L 89.558594 24.195312 C 88.625 23.714844 87.964844 23.023438 87.574219 22.121094 C 87.304688 21.492188 87.121094 20.542969 87.03125 19.28125 C 84.507812 22.558594 81.769531 24.195312 78.824219 24.195312 C 77.832031 24.195312 76.980469 23.820312 76.277344 23.066406 C 75.570312 22.3125 75.21875 21.421875 75.21875 20.394531 C 75.21875 17.921875 76.539062 15.617188 79.183594 13.472656 C 81.710938 11.421875 84.234375 10.398438 86.761719 10.398438 C 87.753906 10.398438 88.582031 10.503906 89.242188 10.710938 L 86.3125 14.863281 C 85.078125 14.652344 84.160156 14.546875 83.558594 14.546875 C 80.3125 14.546875 78.6875 15.304688 78.6875 16.820312 C 78.6875 17.519531 79.003906 18.179688 79.636719 18.800781 C 80.269531 19.421875 80.929688 19.730469 81.621094 19.730469 C 85.800781 19.730469 88.371094 17.027344 89.332031 11.617188 "/>
<path style=" stroke:none;fill-rule:nonzero;fill:rgb(13.928223%,18.092346%,37.806702%);fill-opacity:1;" d="M 114.589844 22.9375 L 109.355469 24.152344 C 107.972656 23.070312 107.28125 21.175781 107.28125 18.46875 C 107.28125 18.289062 107.3125 17.90625 107.371094 17.320312 C 107.433594 16.734375 107.460938 16.363281 107.460938 16.214844 C 107.460938 15.644531 107.296875 15.359375 106.964844 15.359375 C 106.636719 15.359375 105.867188 16.125 104.664062 17.65625 C 102.953125 19.882812 101.691406 21.714844 100.878906 23.160156 L 97.316406 24.152344 L 99.300781 11.386719 L 103.71875 10.488281 L 101.914062 19.28125 C 103.148438 17.398438 104.5 15.632812 105.972656 13.984375 C 108.140625 11.59375 109.882812 10.398438 111.207031 10.398438 C 112.078125 10.398438 112.515625 11.085938 112.515625 12.464844 C 112.515625 13.035156 112.445312 13.910156 112.3125 15.09375 C 112.175781 16.277344 112.109375 17.171875 112.109375 17.769531 C 112.109375 19.085938 112.242188 20.089844 112.515625 20.78125 C 112.875 21.738281 113.566406 22.460938 114.589844 22.9375 "/>
<g clip-path="url(#clip1)" clip-rule="nonzero">
<path style=" stroke:none;fill-rule:nonzero;fill:rgb(13.928223%,18.092346%,37.806702%);fill-opacity:1;" d="M 141.65625 27.636719 L 142.46875 23.578125 L 136.378906 23.578125 L 139.085938 25.472656 C 139.777344 25.953125 140.632812 26.675781 141.65625 27.636719 Z M 134.351562 19.972656 L 143.191406 19.972656 L 146.121094 5.402344 C 140.769531 6.15625 136.847656 11.011719 134.351562 19.972656 Z M 122.085938 28.878906 C 125.992188 27.777344 127.914062 25.292969 128.398438 23.578125 L 125.644531 23.578125 L 127.992188 19.972656 L 132.1875 19.972656 C 134.140625 13.445312 136.152344 8.785156 138.230469 5.992188 C 139.820312 3.824219 141.6875 2.382812 143.820312 1.660156 C 145.324219 1.148438 147.699219 0.835938 150.945312 0.714844 L 146.660156 19.972656 L 150.945312 19.972656 L 148.648438 23.578125 L 145.851562 23.578125 L 144.589844 29.261719 L 141.476562 30.792969 C 138.859375 27.386719 135.386719 24.984375 131.058594 23.578125 C 129.855469 25.429688 128.71875 27.863281 127.046875 29.320312 C 124.539062 31.488281 121.648438 33.082031 118.59375 33.878906 C 118.59375 33.878906 120.476562 29.328125 122.085938 28.878906 "/>
</g>
<path style=" stroke:none;fill-rule:nonzero;fill:rgb(13.928223%,18.092346%,37.806702%);fill-opacity:1;" d="M 155.164062 5.707031 L 158.097656 3.542969 L 160.171875 6.921875 L 157.328125 8.953125 Z M 155.34375 11.296875 L 158.726562 10.984375 C 158.007812 13.417969 157.644531 15.523438 157.644531 17.296875 C 157.644531 19.492188 158.863281 20.890625 161.296875 21.492188 L 156.066406 24.152344 C 154.199219 23.460938 153.269531 21.851562 153.269531 19.328125 C 153.269531 17.402344 153.960938 14.726562 155.34375 11.296875 "/>
<path style=" stroke:none;fill-rule:nonzero;fill:rgb(13.928223%,18.092346%,37.806702%);fill-opacity:1;" d="M 163.867188 12.199219 L 167.925781 9.945312 C 169.191406 10.636719 169.835938 11.71875 169.867188 13.191406 C 170.738281 11.449219 171.746094 10.292969 172.886719 9.71875 C 174.089844 10.109375 175.128906 10.9375 176 12.199219 L 173.65625 16.078125 C 172.84375 14.757812 171.96875 14.09375 171.039062 14.09375 C 170.046875 14.09375 169.339844 14.90625 168.917969 16.53125 L 167.296875 22.933594 L 163.238281 24.152344 L 164.679688 15.761719 C 164.828125 14.890625 164.90625 14.289062 164.90625 13.960938 C 164.90625 13.148438 164.558594 12.5625 163.867188 12.199219 "/>
</g>
</svg>

<svg xmlns="http://www.w3.org/2000/svg" width="176pt" height="45.173" viewBox="0 0 176 33.88"><defs><clipPath id="a"><path d="M118 0h33v33.879h-33Zm0 0"/></clipPath></defs><path d="M11.996 31.566c-4.027-.02-6.976-1.007-8.84-3.02q-2.66-2.841-2.66-6.585c0-2.102.57-4.18 1.715-6.223l2.434-3.472q2.66-3.609 7.757-7.668c-4.84-.301-8.28-.606-10.972.593L0 .45Q1.309 0 3.742 0c.723 0 3.172.125 7.352.383q6.268.382 9.789.383Q23.946.764 28.82.313l-3.25 4.195q-3.966.227-8.25.226-7.084 2.842-10.828 7.668l-1.937 3.29q-.585.994-.586 2.886.001 2.032.992 3.79c1.023 1.835 2.555 3.476 4.871 4.148 2.41.699 5.309 5.066 2.164 5.05" style="stroke:none;fill-rule:nonzero;fill:#242e60;fill-opacity:1"/><path d="m26.602 11.617 3.878-.816q-1.354 2.977-1.355 6.722c0 1.172.266 2.051.79 2.637q.788.878 2.64 1.422l-5.727 2.613q-1.401-.72-1.988-2.074-.405-.945-.54-2.84-3.789 4.916-8.206 4.914-1.49.001-2.551-1.129a3.77 3.77 0 0 1-1.059-2.671q.001-3.708 3.97-6.922 3.786-3.076 7.577-3.075 1.487.001 2.48.313l-2.933 4.152q-1.849-.316-2.75-.316-4.87 0-4.871 2.273 0 1.05.945 1.98c.633.622 1.293.93 1.989.93q6.263.001 7.71-8.113M48.156 11.207l4.196-1.035-3.473 20.34-3.652 1.218 1.714-13.62q-5.232 6.041-8.66 6.042-3.79-.001-3.789-4.132-.001-2.316 1.762-4.72a13.2 13.2 0 0 1 3.785-3.405q2.794-1.723 5.73-1.723 1.26-.001 2.075.32l-3.25 4.188q-.99-.36-1.758-.36-4.149 0-5.004 1.239-.363.504-.363 1.511.002 1.284 1.082 2.063.949.733 2.254.734 5.686 0 7.351-8.66M56.277 10.984l4.012-.406c-1.055 3.695-1.578 6.043-1.578 7.035q0 .947.61 1.692c.406.496.906.742 1.511.742 1.8 0 3.531-1.817 5.184-5.457q.632-1.397 1.171-3.473l3.43-.812q-1.172 5.188-1.172 7.039 0 3.65 3.785 4.148l-5.726 2.793c-1.652-.66-2.48-2.37-2.48-5.14q-2.257 2.664-3.247 3.43c-1.351 1.05-2.812 1.577-4.375 1.577-2.047 0-3.066-1.504-3.066-4.511 0-2.254.644-5.141 1.941-8.657M89.332 11.617l3.879-.816q-1.352 2.977-1.352 6.722-.001 1.758.79 2.637.785.878 2.636 1.422l-5.726 2.613q-1.4-.72-1.985-2.074-.406-.945-.543-2.84-3.786 4.916-8.207 4.914c-.992 0-1.844-.375-2.547-1.129a3.77 3.77 0 0 1-1.058-2.671q-.001-3.708 3.965-6.922c2.527-2.051 5.05-3.075 7.578-3.075q1.489.001 2.48.313l-2.93 4.152q-1.851-.316-2.753-.316-4.87 0-4.871 2.273 0 1.05.949 1.98.948.931 1.984.93 6.27.001 7.711-8.113M114.59 22.938l-5.235 1.214q-2.074-1.623-2.074-5.683 0-.27.09-1.149c.063-.586.09-.957.09-1.105q.001-.855-.496-.856c-.328 0-1.098.766-2.3 2.297q-2.568 3.339-3.786 5.504l-3.563.992 1.985-12.765 4.418-.899-1.805 8.793a45 45 0 0 1 4.059-5.297c2.168-2.39 3.91-3.586 5.234-3.586q1.308 0 1.309 2.067-.001.854-.204 2.629c-.136 1.183-.203 2.078-.203 2.676q-.002 1.974.407 3.011c.359.957 1.05 1.68 2.074 2.157" style="stroke:none;fill-rule:nonzero;fill:#242e60;fill-opacity:1"/><g clip-path="url(#a)"><path d="m141.656 27.637.813-4.059h-6.09l2.707 1.895q1.036.721 2.57 2.164m-7.304-7.664h8.84l2.93-14.57q-8.027 1.129-11.77 14.57m-12.266 8.906c3.906-1.102 5.828-3.586 6.312-5.3h-2.753l2.347-3.606h4.195c1.954-6.528 3.965-11.188 6.043-13.98 1.59-2.169 3.458-3.61 5.59-4.333 1.504-.512 3.88-.824 7.125-.945l-4.285 19.258h4.285l-2.297 3.605h-2.796l-1.262 5.684-3.113 1.531q-3.927-5.107-10.418-7.215c-1.204 1.852-2.34 4.285-4.012 5.742-2.508 2.168-5.399 3.762-8.453 4.559 0 0 1.883-4.55 3.492-5" style="stroke:none;fill-rule:nonzero;fill:#242e60;fill-opacity:1"/></g><path d="m155.164 5.707 2.934-2.164 2.074 3.379-2.844 2.031Zm.18 5.59 3.383-.313q-1.081 3.652-1.082 6.313 0 3.293 3.652 4.195l-5.23 2.66c-1.868-.691-2.797-2.3-2.797-4.824q-.001-2.887 2.074-8.031M163.867 12.2l4.059-2.255q1.896 1.038 1.941 3.246 1.308-2.612 3.02-3.472 1.805.587 3.113 2.48l-2.344 3.88c-.812-1.321-1.687-1.985-2.617-1.985q-1.489 0-2.121 2.437l-1.621 6.403-4.059 1.218 1.442-8.39q.224-1.308.226-1.801 0-1.218-1.039-1.762" style="stroke:none;fill-rule:nonzero;fill:#242e60;fill-opacity:1"/></svg>
